resources/icons/exchanges/7b.svg

<svg viewBox="0 0 20 20" fill="none" xmlns="http://www.w3.org/2000/svg">
<path d="M4.09961 15.7502H0.849609L5.59961 6.40024H0.0996094V4.00024H8.54961V6.20024L4.09961 15.7502ZM19.8996 11.6002C19.8996 12.2002 19.7996 12.7502 19.6496 13.2502C19.4496 13.8002 19.1996 14.2502 18.8996 14.6502C18.5496 15.0502 18.1496 15.3502 17.6996 15.6002C17.1996 15.8502 16.6496 15.9502 16.0496 15.9502C15.4996 15.9502 14.9996 15.8502 14.4996 15.6002C13.9996 15.3502 13.6496 15.0502 13.3996 14.6002H13.3496V15.7002H10.8496V5.60024L13.4996 4.00024V8.35024H13.5496C13.7996 8.05024 14.0996 7.80024 14.4996 7.60024C14.8996 7.35024 15.4496 7.25024 16.0496 7.25024C16.6496 7.25024 17.1996 7.35024 17.6496 7.60024C18.1496 7.85024 18.5496 8.15024 18.8496 8.55024C19.1996 8.95024 19.4496 9.40024 19.5996 9.95024C19.8496 10.4502 19.8996 11.0002 19.8996 11.6002ZM17.2996 11.6002C17.2996 11.3502 17.2496 11.0502 17.1496 10.8002C17.0496 10.5502 16.9496 10.3002 16.7996 10.1502C16.6496 9.95024 16.4496 9.80024 16.1996 9.65024C15.9496 9.55024 15.6996 9.45024 15.3496 9.45024C15.0496 9.45024 14.7496 9.50024 14.5496 9.65024C14.2996 9.75024 14.0996 9.95024 13.8996 10.1502C13.7496 10.3502 13.5996 10.6002 13.4996 10.8502C13.3996 11.1002 13.3496 11.3502 13.3496 11.6502C13.3496 11.9002 13.3996 12.2002 13.4996 12.4502C13.5996 12.7002 13.7496 12.9502 13.8996 13.1502C14.0996 13.3502 14.2996 13.5002 14.5496 13.6502C14.7996 13.7502 15.0496 13.8502 15.3496 13.8502C15.6496 13.8502 15.9496 13.8002 16.1996 13.6502C16.4496 13.5502 16.6496 13.3502 16.7996 13.1502C16.9496 12.9502 17.0996 12.7002 17.1496 12.4502C17.2996 12.1002 17.2996 11.8502 17.2996 11.6002Z" fill="#3170D1"/>
</svg>

<svg viewBox="0 0 20 20" fill="none" xmlns="http://www.w3.org/2000/svg"><path d="M4.1 15.75H.85L5.6 6.4H.1V4h8.45v2.2L4.1 15.75Zm15.8-4.15c0 .6-.1 1.15-.25 1.65-.2.55-.45 1-.75 1.4-.35.4-.75.7-1.2.95-.5.25-1.05.35-1.65.35-.55 0-1.05-.1-1.55-.35-.5-.25-.85-.55-1.1-1h-.05v1.1h-2.5V5.6L13.5 4v4.35h.05c.25-.3.55-.55.95-.75.4-.25.95-.35 1.55-.35.6 0 1.15.1 1.6.35.5.25.9.55 1.2.95.35.4.6.85.75 1.4.25.5.3 1.05.3 1.65Zm-2.6 0c0-.25-.05-.55-.15-.8-.1-.25-.2-.5-.35-.65-.15-.2-.35-.35-.6-.5-.25-.1-.5-.2-.85-.2-.3 0-.6.05-.8.2-.25.1-.45.3-.65.5-.15.2-.3.45-.4.7-.1.25-.15.5-.15.8 0 .25.05.55.15.8.1.25.25.5.4.7.2.2.4.35.65.5.25.1.5.2.8.2.3 0 .6-.05.85-.2.25-.1.45-.3.6-.5.15-.2.3-.45.35-.7.15-.35.15-.6.15-.85Z" fill="#3170D1"/></svg>
